X: 83
T:Earl Bley's Jig
% Nottingham Music Database
S:Trad, arr Phil Rowe
M:6/8
K:D
"D"A2d "A"cde||"D"f2g "Bm"afd|"Em"gfg "A7"e3|||"D"fga "A7"gec|"D"d2d d3::
"G"b2g dgb|"D"a2f dfa|"A"gec "A7"Ace|"D"dfg "D7"a3|
"G"b2g dgb|"D"a2f dcB|"A"Ace Ace|"D"d3 -d3:|


